X: 409
U:~=!turn!
M:C
L:1/8
K:D
f| {/c}d>BA>F {/c}d>ef>e | {/c}d>BA>F e<EE>e | {/c}d>BA>F {/c}d>ef>e | {/c}d>B (A/2B/2)(d/2F/2) A>D D ::
f | {/c}d>fA>f {/c}d>fA>f | {/c}d>fA>f e<EE>e | {/c}d>fA>f {/c}d>e(Tf>e) | {/c}d>B (A/2B/2)(d/2F/2) A>DD ::
(e/2f/2) | a>ba>f {/c}d>eTf>d | e>f{/c}d>f e<EE>f | a>b (a/2b/2)(a/2f/2) {/c}d>ef>e | {/c}d>B (A/2B/2)(d/2F/2) A<D D:|


